src/assets/logo-extrasmall.svg

<?xml version="1.0" encoding="UTF-8" standalone="no"?>
<!-- Created with Inkscape (http://www.inkscape.org/) -->

<svg
   xmlns:dc="http://purl.org/dc/elements/1.1/"
   xmlns:cc="http://creativecommons.org/ns#"
   xmlns:rdf="http://www.w3.org/1999/02/22-rdf-syntax-ns#"
   xmlns:svg="http://www.w3.org/2000/svg"
   xmlns="http://www.w3.org/2000/svg"
   xmlns:xlink="http://www.w3.org/1999/xlink"
   xmlns:sodipodi="http://sodipodi.sourceforge.net/DTD/sodipodi-0.dtd"
   xmlns:inkscape="http://www.inkscape.org/namespaces/inkscape"
   width="16"
   height="16"
   id="svg2"
   sodipodi:version="0.32"
   inkscape:version="0.47pre4 r22446"
   sodipodi:docname="games-tmw_extrasmall.svg"
   inkscape:output_extension="org.inkscape.output.svg.inkscape"
   version="1.0"
   inkscape:export-filename="games-tmw.png"
   inkscape:export-xdpi="90"
   inkscape:export-ydpi="90"
   style="display:inline">
  <defs
     id="defs4">
    <inkscape:perspective
       sodipodi:type="inkscape:persp3d"
       inkscape:vp_x="0 : 8 : 1"
       inkscape:vp_y="0 : 1000 : 0"
       inkscape:vp_z="16 : 8 : 1"
       inkscape:persp3d-origin="8 : 5.3333333 : 1"
       id="perspective30" />
    <linearGradient
       id="linearGradient3333">
      <stop
         id="stop3335"
         offset="0"
         style="stop-color:#fff530;stop-opacity:1;" />
      <stop
         id="stop3337"
         offset="1"
         style="stop-color:#cdde5b;stop-opacity:0;" />
    </linearGradient>
    <linearGradient
       inkscape:collect="always"
       id="linearGradient3635">
      <stop
         style="stop-color:#000000;stop-opacity:1;"
         offset="0"
         id="stop3637" />
      <stop
         style="stop-color:#000000;stop-opacity:0;"
         offset="1"
         id="stop3639" />
    </linearGradient>
    <linearGradient
       id="linearGradient3512">
      <stop
         style="stop-color:#d7ff38;stop-opacity:0.81402439;"
         offset="0"
         id="stop3514" />
      <stop
         style="stop-color:#e7fd6f;stop-opacity:0.85365856;"
         offset="1"
         id="stop3516" />
    </linearGradient>
    <linearGradient
       id="linearGradient3502">
      <stop
         style="stop-color:#61c61a;stop-opacity:1;"
         offset="0"
         id="stop3504" />
      <stop
         style="stop-color:#b8f190;stop-opacity:1;"
         offset="1"
         id="stop3506" />
    </linearGradient>
    <linearGradient
       inkscape:collect="always"
       xlink:href="#linearGradient3502"
       id="linearGradient3508"
       x1="29.612352"
       y1="31.837559"
       x2="14.060963"
       y2="11.381969"
       gradientUnits="userSpaceOnUse" />
    <radialGradient
       inkscape:collect="always"
       xlink:href="#linearGradient3635"
       id="radialGradient3641"
       cx="22.98097"
       cy="42.431534"
       fx="22.98097"
       fy="42.431534"
       r="21.920311"
       gradientTransform="matrix(1,0,0,0.1895161,0,34.390074)"
       gradientUnits="userSpaceOnUse" />
    <linearGradient
       inkscape:collect="always"
       xlink:href="#linearGradient3333"
       id="linearGradient3209"
       gradientUnits="userSpaceOnUse"
       gradientTransform="matrix(0.59979097,0,0,0.58295118,-6.0173651,-5.0728138)"
       x1="15.367352"
       y1="27.140129"
       x2="34.263458"
       y2="4.6520872" />
    <linearGradient
       inkscape:collect="always"
       xlink:href="#linearGradient3512"
       id="linearGradient3221"
       gradientUnits="userSpaceOnUse"
       gradientTransform="matrix(0.43156019,0,0,0.42973373,-1.9508427,-1.4919053)"
       x1="30.025761"
       y1="28.536076"
       x2="17.009012"
       y2="15.476471" />
  </defs>
  <sodipodi:namedview
     id="base"
     pagecolor="#ffffff"
     bordercolor="#666666"
     borderopacity="1.0"
     inkscape:pageopacity="0.0"
     inkscape:pageshadow="2"
     inkscape:zoom="7.9999996"
     inkscape:cx="35.536752"
     inkscape:cy="-17.15823"
     inkscape:document-units="px"
     inkscape:current-layer="layer4"
     showgrid="false"
     inkscape:window-width="1440"
     inkscape:window-height="874"
     inkscape:window-x="0"
     inkscape:window-y="25"
     inkscape:window-maximized="0" />
  <metadata
     id="metadata7">
    <rdf:RDF>
      <cc:Work
         rdf:about="">
        <dc:format>image/svg+xml</dc:format>
        <dc:type
           rdf:resource="http://purl.org/dc/dcmitype/StillImage" />
        <dc:title></dc:title>
      </cc:Work>
    </rdf:RDF>
  </metadata>
  <g
     inkscape:groupmode="layer"
     id="layer4"
     inkscape:label="shadow"
     style="display:inline" />
  <g
     inkscape:groupmode="layer"
     id="layer2"
     inkscape:label="shape"
     style="opacity:1;display:inline">
    <path
       sodipodi:type="arc"
       style="fill:url(#linearGradient3508);fill-opacity:1;stroke:#2b590a;stroke-width:1.91568542;stroke-miterlimit:4;stroke-opacity:1;stroke-dasharray:none;stroke-dashoffset:0"
       id="path3305"
       sodipodi:cx="22.286491"
       sodipodi:cy="21.609764"
       sodipodi:rx="10.796005"
       sodipodi:ry="10.227795"
       d="m 33.082497,21.609764 a 10.796005,10.227795 0 1 1 -21.592011,0 10.796005,10.227795 0 1 1 21.592011,0 z"
       transform="matrix(0.57125971,0,0,0.60393683,-4.694779,-5.1116003)" />
    <path
       style="opacity:0.54000005;fill:none;stroke:#ffffff;stroke-width:1.12521803;stroke-miterlimit:4;stroke-opacity:1;stroke-dasharray:none;stroke-dashoffset:0"
       d="M 7.67895,2.7683 C 6.2335718,2.8920259 4.8282446,3.6872517 3.9354603,4.8212443 2.4965599,6.6310659 2.5022672,9.4124624 4.0534211,11.157426 4.6960575,12.101643 5.766661,12.630382 6.8798945,12.97456 8.3260486,13.376248 9.9649919,12.903566 11.089767,12.121675 12.408075,11.065477 13.333431,9.3568119 13.209863,7.6432773 13.099862,6.1815543 12.386274,4.9082599 11.335909,3.9638443 10.26509,3.2443956 9.0123651,2.6029181 7.67895,2.7683 z"
       id="path3658" />
    <path
       style="fill:url(#linearGradient3221);fill-opacity:1;fill-rule:evenodd;stroke:#516600;stroke-width:0.56260902;stroke-linecap:butt;stroke-linejoin:miter;stroke-miterlimit:4;stroke-opacity:0.28627451;stroke-dasharray:none;stroke-dashoffset:0;marker:none;visibility:visible;display:inline;overflow:visible;enable-background:accumulate"
       d="m 10.597381,6.1018266 c 0,0 2.324875,3.4172059 0.895105,3.6301502 C 9.1552656,10.080073 8.1143657,11.367012 7.4147828,10.975178 6.4718691,10.447058 4.5687383,10.36936 4.530554,8.3893184 5.6858447,7.7519356 5.8732126,6.6488356 5.8732126,6.6488356 c 0,0 0,-1.2929303 -0.099456,-2.1880359 1.687188,0.3830877 2.5190674,1.2858621 2.5190674,1.2858621 L 8.6565217,7.7443173 C 10.446733,7.3464926 10.597381,6.1018266 10.597381,6.1018266 z"
       id="path3211"
       sodipodi:nodetypes="csscccccc" />
  </g>
  <g
     inkscape:groupmode="layer"
     id="layer5"
     inkscape:label="reflect"
     style="display:inline">
    <path
       style="opacity:0.5;fill:url(#linearGradient3209);fill-opacity:1;stroke:none;display:inline"
       d="M 7.6437869,3.3309091 C 6.4243439,3.6973562 5.0381202,4.1670895 4.408785,5.1945515 4.0441329,5.8338176 3.3740679,6.5307864 3.4945453,7.2691723 4.6762464,7.7232998 6.0267409,7.4969408 7.2299398,7.2115991 8.8391408,6.7757824 10.373503,5.8781227 11.757865,5.0890623 11.504811,4.5550292 10.971373,4.3801758 10.513113,4.0188392 9.6760025,3.471364 8.6452974,3.2177379 7.6437869,3.3309091 z"
       id="path3197" />
  </g>
</svg>

<svg xmlns="http://www.w3.org/2000/svg" xmlns:xlink="http://www.w3.org/1999/xlink" width="16" height="16" version="1"><defs><linearGradient id="c"><stop offset="0" stop-color="#fff530"/><stop offset="1" stop-color="#cdde5b" stop-opacity="0"/></linearGradient><linearGradient id="b"><stop offset="0"/><stop offset="1" stop-opacity="0"/></linearGradient><linearGradient id="d"><stop offset="0" stop-color="#d7ff38" stop-opacity=".814"/><stop offset="1" stop-color="#e7fd6f" stop-opacity=".854"/></linearGradient><linearGradient id="a"><stop offset="0" stop-color="#61c61a"/><stop offset="1" stop-color="#b8f190"/></linearGradient><linearGradient xlink:href="#a" id="e" x1="29.612" y1="31.838" x2="14.061" y2="11.382" gradientUnits="userSpaceOnUse"/><linearGradient xlink:href="#c" id="g" gradientUnits="userSpaceOnUse" gradientTransform="matrix(.5998 0 0 .58295 -6.017 -5.073)" x1="15.367" y1="27.14" x2="34.263" y2="4.652"/><linearGradient xlink:href="#d" id="f" gradientUnits="userSpaceOnUse" gradientTransform="matrix(.43156 0 0 .42973 -1.95 -1.492)" x1="30.026" y1="28.536" x2="17.009" y2="15.476"/></defs><path d="M33.082 21.61a10.796 10.228 0 1 1-21.592 0 10.796 10.228 0 1 1 21.592 0z" transform="matrix(.57126 0 0 .60394 -4.695 -5.112)" fill="url(#e)" stroke="#2b590a" stroke-width="1.916"/><path d="M7.679 2.768c-1.445.124-2.85.92-3.744 2.053-1.438 1.81-1.433 4.591.118 6.336.643.945 1.714 1.473 2.827 1.818 1.446.401 3.085-.071 4.21-.853 1.318-1.057 2.243-2.765 2.12-4.479-.11-1.461-.824-2.735-1.874-3.68-1.07-.719-2.324-1.36-3.657-1.195z" opacity=".54" fill="none" stroke="#fff" stroke-width="1.125"/><path style="marker:none" d="M10.597 6.102s2.325 3.417.895 3.63c-2.337.348-3.378 1.635-4.077 1.243-.943-.528-2.846-.606-2.884-2.586 1.155-.637 1.342-1.74 1.342-1.74s0-1.293-.1-2.188c1.688.383 2.52 1.286 2.52 1.286l.364 1.997c1.79-.398 1.94-1.642 1.94-1.642z" fill="url(#f)" fill-rule="evenodd" stroke="#516600" stroke-width=".563" stroke-opacity=".286" overflow="visible"/><g><path d="M7.644 3.33c-1.22.367-2.606.837-3.235 1.865-.365.639-1.035 1.336-.914 2.074 1.181.454 2.532.228 3.735-.057 1.61-.436 3.144-1.334 4.528-2.123-.253-.534-.787-.709-1.245-1.07a4.39 4.39 0 0 0-2.87-.688z" opacity=".5" fill="url(#g)"/></g></svg>
